projects/packages/jetpack-mu-wpcom/src/assets/images/product-published.svg

<svg fill="none" height="109" viewBox="0 0 93 109" width="93" xmlns="http://www.w3.org/2000/svg" xmlns:xlink="http://www.w3.org/1999/xlink"><linearGradient id="a"><stop offset="0" stop-color="#e9e9e9"/><stop offset="1" stop-color="#efefef"/></linearGradient><linearGradient id="b" gradientUnits="userSpaceOnUse" x1="5.04633" x2="67.2737" xlink:href="#a" y1="61.0719" y2="60.9564"/><linearGradient id="c" gradientUnits="userSpaceOnUse" x1="64.7084" x2="81.9054" xlink:href="#a" y1="96.5632" y2="85.3644"/><clipPath id="d"><path d="m.5 0h92v109h-92z"/></clipPath><g clip-path="url(#d)"><path d="m8.30613 31.4346c-.13939 2.5316-2.64848 47.3271-3.20606 57.5942-.06969.9142.90606 1.758 2.09091 1.758h60.14852z" fill="url(#b)"/><path d="m23.6394 35.7236s.2091 5.6962 11.6394 6.0478 22.5121.4219 22.5121.4219l-.1394-5.6961s-.7666-.422-3.6242-.3516c-2.8576.0703-30.3879-.422-30.3879-.422z" fill="#8bbece"/><path d="m79.6062 23.0661-21.6061-.4923v-4.2193l29.203.4219z" fill="#003b62"/><path d="m53.1213 22.5738-22.4425-.3516v-3.8677h22.4425z" fill="#003b62"/><path d="m18.1334 17.7217c.0697.4922 7.8758 4.5006 7.8758 4.5006v-4.2897z" fill="#003b62"/><path d="m31.9333 8.93101c.2091-.14065 3.0667-1.89871 7.0394-2.18 0 0 3.1364-2.67226 8.8516-1.75807 5.7151.9142 10.803 5.13356 9.8969 12.58776v.8439l3.9031.0703s.6969-13.0097-13.1031-14.62712c-12.6151-1.61742-16.5879 5.06323-16.5879 5.06323z" fill="#003b62"/><path d="m31.585 15.0493s2.6484 2.6723 3.6939 2.9536v-6.3994z" fill="#003b62"/><path d="m77.0273 94.654s.7667.211 3.7637-1.5471c2.9273-1.758 7.3879-4.2896 7.3879-4.2896l-5.7152-67.3691-4.6697 2.6723.1394 68.9161c0-.0703.1394 1.1252-.9061 1.6174z" fill="#8bbece"/><g stroke-linecap="round" stroke-linejoin="round" stroke-miterlimit="10" stroke-width="1.8"><path d="m85.9486 89.9428-2.3-50.9838" stroke="#003b62"/><path d="m91.8728 86.1444c0 .2813-.1394.5626-.4182.7033l-12.4758 7.2432c-.697.4219-1.5333.6329-2.3697.6329h-3.4151 3.0666c.9061 0 1.6031-.5626 1.6031-1.2658l-.1394-69.4084 9.4091-5.3445z" stroke="#003b62"/><path d="m77.794 24.1203.1394 69.4083c0 .7033-.7667 1.2659-1.6031 1.2659h-3.0666l-69.97579-.8439c-.83637 0-1.53334-.5626-1.46364-1.2658l4.87879-69.6194z" stroke="#003b62"/><path d="m26.0788 17.9317v.4922 4.9226l-19.3758-.2813 11.4303-5.3445z" stroke="#003b62"/><path d="m52.9819 18.2832c.1394.4923.1394.9846.1394 1.5471v3.9381l-22.5122-.2813v-4.8522c0-.211 0-.422 0-.6329z" stroke="#003b62"/><path d="m87.203 18.7754-9.4091 5.3446-20.0727-.2813v-3.6568c0-.6329-.0697-1.1955-.1394-1.7581z" stroke="#003b62"/><path d="m57.7213 20.1121v3.6568l-4.6-.0703v-3.9381c0-.4923-.0697-1.0548-.1394-1.5471-.9061-4.2897-5.5061-7.7355-11.0818-8.0168-2.3697-.1406-4.6.3516-6.4121 1.2658-2.7182 1.3362-4.5303 3.7271-4.7394 6.4697v.6329 4.8523l-4.6-.0704v-4.9225c0-.1407 0-.3516 0-.4923.1394-3.5161 2.1606-6.6103 5.2969-8.64967 2.0909-1.40645 4.7394-2.32064 7.597-2.53161.9061-.07032 1.8818-.14065 2.8576-.07032 8.0151.42193 14.6363 5.4852 15.6818 11.6735.0697.5626.1394 1.1955.1394 1.7581z" stroke="#003b62"/><path d="m35.4182 11.5322c-.0697.3516-.1394.7033-.2091 1.0549v.6329 4.8522l-4.5303-.0703c.2091-2.8129 2.0212-5.1335 4.7394-6.4697z" stroke="#003b62"/><path d="m62.3212 14.697v3.6568l-4.6-.0703v-3.9381c0-.4923-.0697-1.0549-.1394-1.5471-.9061-4.28969-5.5061-7.73549-11.0818-8.01678-2.8576-.14065-5.5061.56258-7.4576 1.89871-2.9273.28129-5.5061 1.19548-7.597 2.53161 2.0212-4.9929 8.0152-8.438711 15.1243-8.01678 8.0151.42194 14.6363 5.48516 15.6818 11.67354 0 .6329.0697 1.2658.0697 1.8284z" stroke="#003b62"/><path d="m56.397 44.2327-32.6181-.5626c-.5576 0-.9758-.3516-.9758-.8439l.3485-6.4696c0-.422.4879-.7736 1.0454-.7736l32.6182.5626c.5576 0 .9758.3516.9758.8439l-.3485 6.4696c0 .422-.4879.7736-1.0455.7736z" stroke="#003b62"/><path d="m88.9455 91.2779-26.903-17.6509 5.3666 31.926 6.9-7.946 6.6213 10.197 4.6697-3.165-6.6213-10.1262z" fill="#fff" stroke="#003c65"/></g><path d="m85.2516 90.5046-21.0485-14.0645c-.209-.1407-.4878.0703-.4181.2813l4.3909 25.0346c.0697.211.3485.281.4879.141l5.5757-6.1885 6.6909 10.3375c.0697.141.2788.141.3485.07l2.7182-1.758c.1394-.07.1394-.281.0697-.351l-6.6909-10.3379 7.806-2.6723c.2091-.0703.2788-.3516.0697-.4922z" fill="url(#c)"/></g></svg>

<svg width="93" height="109" viewBox="0 0 93 109" fill="none" xmlns="http://www.w3.org/2000/svg">
<g clip-path="url(#clip0_1242_7300)">
<path d="M8.30613 31.4346C8.16674 33.9662 5.65765 78.7617 5.10007 89.0288C5.03038 89.943 6.00613 90.7868 7.19098 90.7868H67.3395L8.30613 31.4346Z" fill="url(#paint0_linear_1242_7300)"/>
<path d="M23.6394 35.7236C23.6394 35.7236 23.8485 41.4198 35.2788 41.7714C46.7091 42.123 57.7909 42.1933 57.7909 42.1933L57.6515 36.4972C57.6515 36.4972 56.8849 36.0752 54.0273 36.1456C51.1697 36.2159 23.6394 35.7236 23.6394 35.7236Z" fill="#8BBECE"/>
<path d="M79.6062 23.0661L58.0001 22.5738V18.3545L87.2031 18.7764L79.6062 23.0661Z" fill="#003B62"/>
<path d="M53.1213 22.5738L30.6788 22.2222V18.3545H53.1213V22.5738Z" fill="#003B62"/>
<path d="M18.1334 17.7217C18.2031 18.2139 26.0092 22.2223 26.0092 22.2223V17.9326L18.1334 17.7217Z" fill="#003B62"/>
<path d="M31.9333 8.93101C32.1424 8.79036 35 7.0323 38.9727 6.75101C38.9727 6.75101 42.1091 4.07875 47.8243 4.99294C53.5394 5.90714 58.6273 10.1265 57.7212 17.5807V18.4246L61.6243 18.4949C61.6243 18.4949 62.3212 5.4852 48.5212 3.86778C35.9061 2.25036 31.9333 8.93101 31.9333 8.93101Z" fill="#003B62"/>
<path d="M31.585 15.0493C31.585 15.0493 34.2334 17.7216 35.2789 18.0029V11.6035L31.585 15.0493Z" fill="#003B62"/>
<path d="M77.0273 94.654C77.0273 94.654 77.794 94.865 80.791 93.1069C83.7183 91.3489 88.1789 88.8173 88.1789 88.8173L82.4637 21.4482L77.794 24.1205L77.9334 93.0366C77.9334 92.9663 78.0728 94.1618 77.0273 94.654Z" fill="#8BBECE"/>
<path d="M85.9486 89.9428L83.6486 38.959" stroke="#003B62" stroke-width="1.8" stroke-miterlimit="10" stroke-linecap="round" stroke-linejoin="round"/>
<path d="M91.8728 86.1444C91.8728 86.4257 91.7334 86.707 91.4546 86.8477L78.9788 94.0909C78.2818 94.5128 77.4455 94.7238 76.6091 94.7238H73.194H76.2606C77.1667 94.7238 77.8637 94.1612 77.8637 93.458L77.7243 24.0496L87.1334 18.7051L91.8728 86.1444Z" stroke="#003B62" stroke-width="1.8" stroke-miterlimit="10" stroke-linecap="round" stroke-linejoin="round"/>
<path d="M77.794 24.1203L77.9334 93.5286C77.9334 94.2319 77.1667 94.7945 76.3303 94.7945H73.2637L3.28791 93.9506C2.45154 93.9506 1.75457 93.388 1.82427 92.6848L6.70306 23.0654L77.794 24.1203Z" stroke="#003B62" stroke-width="1.8" stroke-miterlimit="10" stroke-linecap="round" stroke-linejoin="round"/>
<path d="M26.0788 17.9317C26.0788 18.0723 26.0788 18.2833 26.0788 18.4239V23.3465L6.703 23.0652L18.1333 17.7207L26.0788 17.9317Z" stroke="#003B62" stroke-width="1.8" stroke-miterlimit="10" stroke-linecap="round" stroke-linejoin="round"/>
<path d="M52.9819 18.2832C53.1213 18.7755 53.1213 19.2678 53.1213 19.8303V23.7684L30.6091 23.4871V18.6349C30.6091 18.4239 30.6091 18.2129 30.6091 18.002L52.9819 18.2832Z" stroke="#003B62" stroke-width="1.8" stroke-miterlimit="10" stroke-linecap="round" stroke-linejoin="round"/>
<path d="M87.203 18.7754L77.7939 24.12L57.7212 23.8387V20.1819C57.7212 19.549 57.6515 18.9864 57.5818 18.4238L87.203 18.7754Z" stroke="#003B62" stroke-width="1.8" stroke-miterlimit="10" stroke-linecap="round" stroke-linejoin="round"/>
<path d="M57.7213 20.1121V23.7689L53.1213 23.6986V19.7605C53.1213 19.2682 53.0516 18.7057 52.9819 18.2134C52.0758 13.9237 47.4758 10.4779 41.9001 10.1966C39.5304 10.056 37.3001 10.5482 35.488 11.4624C32.7698 12.7986 30.9577 15.1895 30.7486 17.9321C30.7486 18.1431 30.7486 18.354 30.7486 18.565V23.4173L26.1486 23.3469V18.4244C26.1486 18.2837 26.1486 18.0728 26.1486 17.9321C26.288 14.416 28.3092 11.3218 31.4455 9.28243C33.5364 7.87598 36.1849 6.96179 39.0425 6.75082C39.9486 6.6805 40.9243 6.61017 41.9001 6.6805C49.9152 7.10243 56.5364 12.1657 57.5819 18.354C57.6516 18.9166 57.7213 19.5495 57.7213 20.1121Z" stroke="#003B62" stroke-width="1.8" stroke-miterlimit="10" stroke-linecap="round" stroke-linejoin="round"/>
<path d="M35.4182 11.5322C35.3485 11.8838 35.2788 12.2355 35.2091 12.5871C35.2091 12.798 35.2091 13.009 35.2091 13.22V18.0722L30.6788 18.0019C30.8879 15.189 32.7 12.8684 35.4182 11.5322Z" stroke="#003B62" stroke-width="1.8" stroke-miterlimit="10" stroke-linecap="round" stroke-linejoin="round"/>
<path d="M62.3212 14.697V18.3538L57.7212 18.2835V14.3454C57.7212 13.8531 57.6515 13.2905 57.5818 12.7983C56.6757 8.50861 52.0757 5.06281 46.5 4.78152C43.6424 4.64087 40.9939 5.3441 39.0424 6.68023C36.1151 6.96152 33.5363 7.87571 31.4454 9.21184C33.4666 4.21894 39.4606 0.773129 46.5697 1.19506C54.5848 1.617 61.206 6.68022 62.2515 12.8686C62.2515 13.5015 62.3212 14.1344 62.3212 14.697Z" stroke="#003B62" stroke-width="1.8" stroke-miterlimit="10" stroke-linecap="round" stroke-linejoin="round"/>
<path d="M56.397 44.2327L23.7789 43.6701C23.2213 43.6701 22.8031 43.3185 22.8031 42.8262L23.1516 36.3566C23.1516 35.9346 23.6395 35.583 24.197 35.583L56.8152 36.1456C57.3728 36.1456 57.791 36.4972 57.791 36.9895L57.4425 43.4591C57.4425 43.8811 56.9546 44.2327 56.397 44.2327Z" stroke="#003B62" stroke-width="1.8" stroke-miterlimit="10" stroke-linecap="round" stroke-linejoin="round"/>
<path d="M88.9455 91.2779L62.0425 73.627L67.4091 105.553L74.3091 97.607L80.9304 107.804L85.6001 104.639L78.9788 94.5128L88.9455 91.2779Z" fill="white" stroke="#003C65" stroke-width="1.8" stroke-miterlimit="10" stroke-linecap="round" stroke-linejoin="round"/>
<path d="M85.2516 90.5046L64.2031 76.4401C63.9941 76.2994 63.7153 76.5104 63.785 76.7214L68.1759 101.756C68.2456 101.967 68.5244 102.037 68.6638 101.897L74.2395 95.7085L80.9304 106.046C81.0001 106.187 81.2092 106.187 81.2789 106.116L83.9971 104.358C84.1365 104.288 84.1365 104.077 84.0668 104.007L77.3759 93.6691L85.1819 90.9968C85.391 90.9265 85.4607 90.6452 85.2516 90.5046Z" fill="url(#paint1_linear_1242_7300)"/>
</g>
<defs>
<linearGradient id="paint0_linear_1242_7300" x1="5.04633" y1="61.0719" x2="67.2737" y2="60.9564" gradientUnits="userSpaceOnUse">
<stop stop-color="#E9E9E9"/>
<stop offset="1" stop-color="#EFEFEF"/>
</linearGradient>
<linearGradient id="paint1_linear_1242_7300" x1="64.7084" y1="96.5632" x2="81.9054" y2="85.3644" gradientUnits="userSpaceOnUse">
<stop stop-color="#E9E9E9"/>
<stop offset="1" stop-color="#EFEFEF"/>
</linearGradient>
<clipPath id="clip0_1242_7300">
<rect width="92" height="109" fill="white" transform="translate(0.5)"/>
</clipPath>
</defs>
</svg>
